X:24
T:Tobin's Favorite
M:6/8
L:1/8
R:jig
D:Highland Sun: Celtic Crossover
K:D
|:DFA dcd|ecA efg|~f3 ~g3|ecA GFE|
DFA dcd|ecA efg|~f3 gec|1edc d3:|2edc d2e|
|:fga agf|efg efg|~f3 ~g3|ecA GFE|
DFA dcd|ecA efg|~f3 gec|1edc d2e:|2edc d3||
